X:1
T:Johnny I Do Miss You
R:polka
M:2/4
L:1/8
K:D
d>B|:AF E/F/D|F2 A,D/E/|FB AF|E2 EB|
AF E/F/D|F2 A,F|GA/G/ FE|1 D2 d>B:|2 D2 DE|]
|FA A/B/A/G/|FA A>G|FA Bc|~d2 dA|
|FA A/B/A/G/|FA de|fe ed|~e2 ef|
|FA A/B/A/G/|FA A>G|FA Bc|~d2 c>B|
|AF E/F/D|F2 A,F|GA/G/ FE|D2 d>B|